X:1
T:Lacrymosa
T:Lacrymosa
T:W.A.Mozart 
%%score ( 1 2 )
L:1/8
Q:1/8=140
M:6/8
K:F
V:1 treble-8 nm="Classical Guitar" snm="Guit."
V:2 treble-8 
V:1
"^= D""^II" z/4 !1!^c/4c/4c/4 z/4 c/4c/4c/4 z/4 !3!d/4d/4d/4 z/4 !1!a/4a/4a/4 z/4 a/4a/4a/4 z/4 !1!b/4b/4b/4 | %1
 z/4 !3!d/4d/4d/4 z/4 d/4d/4d/4 z/4 !2!^c/4c/4c/4"^V" z/4 !4!c'/4c'/4c'/4 z/4 c'/4c'/4c'/4 z/4 !3!b/4b/4b/4 | %2
 z/4 !3!a/4a/4a/4 z/4 a/4a/4a/4 z/4 d'/4d'/4d'/4"^III" z/4 !4!b/4b/4b/4 z/4 b/4b/4b/4 z/4 g/4g/4g/4 | %3
 z/4 e/4e/4e/4 z/4 e/4e/4e/4 z/4 !1!f/4f/4f/4"^II" z/4 !4!a/4a/4a/4 z/4 a/4a/4a/4 z/4 ^c/4c/4c/4 | %4
 z/4 !1!A/4A/4A/4 z/4 A/4A/4A/4 z/4 A/4A/4A/4 z/4 !1!A/4A/4A/4 z/4 !2!f/4f/4f/4 z/4 !4!d/4d/4d/4 | %5
 z/4 !4!d/4d/4d/4 z/4 d/4d/4d/4 z/4 !2!d/4d/4d/4 z/4 !2!^c/4c/4c/4 z/4 c/4c/4c/4 z/4 c/4c/4c/4 | %6
 z/4 !1!A/4A/4A/4 z/4 A/4A/4A/4 z/4 A/4A/4A/4 z/4 !1!A/4A/4A/4 z/4 !2!f/4f/4f/4 z/4 !4!d/4d/4d/4 | %7
 z/4 !4!d/4d/4d/4 z/4 d/4d/4d/4 z/4 !2!d/4d/4d/4 z/4 !2!^c/4c/4c/4 z/4 c/4c/4c/4 z/4 c/4c/4c/4 | %8
 z/4 D/4D/4D/4 z/4 D/4D/4D/4 z/4 D/4D/4D/4 z/4 !2!E/4E/4E/4 z/4 E/4E/4E/4 z/4 E/4E/4E/4 | %9
 z/4 !2!F/4F/4F/4 z/4 F/4F/4F/4 z/4 F/4F/4F/4 z/4 G/4G/4G/4 z/4 G/4G/4G/4 z/4 G/4G/4G/4 | %10
 z/4 !1!A/4A/4A/4 z/4 A/4A/4A/4 z/4 A/4A/4A/4 z/4 =B/4B/4B/4 z/4 B/4B/4B/4 z/4 B/4B/4B/4 | %11
 z/4 !1!c/4c/4c/4 z/4 c/4c/4c/4 z/4 c/4c/4c/4 z/4 !1!d/4d/4d/4 z/4 d/4d/4d/4 z/4 d/4d/4d/4 | %12
 z/4 !2!_e/4e/4e/4 z/4 e/4e/4e/4 z/4 e/4e/4e/4 z/4 =e/4e/4e/4 z/4 e/4e/4e/4 z/4 e/4e/4e/4 | %13
"^I" z/4 f/4f/4f/4 z/4 f/4f/4f/4 z/4 f/4f/4f/4"^II" z/4 ^f/4f/4f/4 z/4 f/4f/4f/4 z/4 f/4f/4f/4 | %14
 z/4 !3!g/4g/4g/4 z/4 g/4g/4g/4 z/4 g/4g/4g/4 z/4 !4!^g/4g/4g/4 z/4 g/4g/4g/4 z/4 g/4g/4g/4 | %15
 z/4 !1!a/4a/4a/4 z/4 a/4a/4a/4 z/4 a/4a/4a/4 z/4 !2!^c/4c/4c/4 z/4 c/4c/4c/4 z/4 c/4c/4c/4 |] %16
V:2
 !0!D,!2!FA !4!F!3!A!2!d | A,!1!E!0!G !1!G!2!^c!1!e | D,!1!F!0!D !2!G!1!B!3!e | !3!F!2!A!4!d A,EA | %4
 !0!D,!3!^C!0!D !3!F,!0!A,!1!B, | !2!E,!0!D!3!^C A,!3!B!1!A | !0!D,!3!^C!0!D !3!F,!0!A,!1!B, | %7
 !2!E,!0!D!3!^C A,!3!B!1!A | D,!2!F,!0!A, !1!E,!4!^CA, | !1!F,A,!4!D !3!C!2!EC | %10
 !2!F,!3!C!4!F !2!E,!1!^G!3!E | A,!3!A!2!E !3!G,!2!=B!4!G | !1!C!4!c!3!G !1!B,!2!cG | %13
 A,c!3!A !2!C!4!^dA | =B,!2!d!4!=B _B,!3!d!2!_B | A,!2!f!3!d A,G!1!E |] %16

